UI/src/icons/svg/send.svg

<?xml version="1.0" standalone="no"?><!DOCTYPE svg PUBLIC "-//W3C//DTD SVG 1.1//EN" "http://www.w3.org/Graphics/SVG/1.1/DTD/svg11.dtd"><svg t="1634047217564" class="icon" viewBox="0 0 1025 1024" version="1.1" xmlns="http://www.w3.org/2000/svg" p-id="26116" xmlns:xlink="http://www.w3.org/1999/xlink" width="256.25" height="256"><defs><style type="text/css"></style></defs><path d="M1008.00076 6.285714q18.857143 13.714286 15.428571 36.571429l-146.285714 877.714286q-2.857143 16.571429-18.285714 25.714286-8 4.571429-17.714286 4.571429-6.285714 0-13.714286-2.857143l-258.857143-105.714286-138.285714 168.571429q-10.285714 13.142857-28 13.142857-7.428571 0-12.571429-2.285714-10.857143-4-17.428571-13.428571t-6.571429-20.857143l0-199.428571 493.714286-605.142857-610.857143 528.571429-225.714286-92.571429q-21.142857-8-22.857143-31.428571-1.142857-22.857143 18.285714-33.714286l950.857143-548.571429q8.571429-5.142857 18.285714-5.142857 11.428571 0 20.571429 6.285714z" p-id="26117"></path></svg>

<svg xmlns="http://www.w3.org/2000/svg" width="256.25" height="256" class="icon" viewBox="0 0 1025 1024"><path d="M1008 6.286q18.858 13.714 15.43 36.571L877.143 920.571q-2.858 16.572-18.286 25.715-8 4.571-17.714 4.571-6.286 0-13.715-2.857L568.572 842.286l-138.286 168.571q-10.285 13.143-28 13.143-7.428 0-12.571-2.286-10.857-4-17.429-13.428t-6.571-20.857V788l493.714-605.143L248.572 711.43 22.858 618.857Q1.715 610.857 0 587.43q-1.143-22.858 18.285-33.715L969.144 5.143Q977.715 0 987.429 0q11.429 0 20.572 6.286"/></svg>
